packages/icons/svg/Fill/arrowhead-down.svg

<svg width="24" height="24" viewBox="0 0 24 24" fill="none" xmlns="http://www.w3.org/2000/svg">
<g id="Icon/Fill/arrowhead-down">
<path id="Mask" fill-rule="evenodd" clip-rule="evenodd" d="M11.9999 12.0001C11.7729 12.0001 11.5449 11.9231 11.3599 11.7681L5.35989 6.76813C4.93589 6.41413 4.87889 5.78413 5.23189 5.36013C5.58589 4.93513 6.21489 4.87913 6.63989 5.23213L12.0109 9.70713L17.3729 5.39313C17.8029 5.04713 18.4339 5.11513 18.7789 5.54513C19.1259 5.97513 19.0569 6.60413 18.6269 6.95113L12.6269 11.7791C12.4439 11.9261 12.2219 12.0001 11.9999 12.0001ZM12.011 16.7076L17.373 12.3926C17.803 12.0476 18.434 12.1156 18.779 12.5446C19.125 12.9756 19.057 13.6046 18.627 13.9516L12.627 18.7796C12.444 18.9266 12.222 18.9996 12 18.9996C11.772 18.9996 11.545 18.9226 11.36 18.7676L5.35999 13.7676C4.93499 13.4146 4.87799 12.7846 5.23199 12.3596C5.58499 11.9356 6.21499 11.8776 6.63999 12.2316L12.011 16.7076Z" fill="#000000"/>
</g>
</svg>

<svg fill="none" height="24" viewBox="0 0 24 24" width="24" xmlns="http://www.w3.org/2000/svg"><path clip-rule="evenodd" d="m11.9999 12.0001c-.227 0-.455-.077-.64-.232l-5.99998-5.00003c-.424-.354-.481-.984-.128-1.408.354-.425.983-.481 1.408-.128l5.37098 4.475 5.362-4.314c.43-.346 1.061-.278 1.406.152.347.43.278 1.059-.152 1.406l-6 4.82803c-.183.147-.405.221-.627.221zm.0111 4.7076 5.362-4.315c.43-.345 1.061-.277 1.406.152.346.431.278 1.06-.152 1.407l-6 4.828c-.183.147-.405.22-.627.22-.228 0-.455-.077-.64-.232l-5.99998-5c-.425-.353-.482-.983-.128-1.408.353-.424.983-.482 1.408-.128z" fill="#6b7280" fill-rule="evenodd"/></svg>
